svg/Pictogram/pictograms-nps-airport.svg

<svg xmlns="http://www.w3.org/2000/svg" width="120.14" height="120.15" viewBox="0 0 120.135 120.148" enable-background="new 0 0 120.135 120.148"><path d="M105.771,120.147c7.933,0,14.363-6.438,14.363-14.359V14.352C120.134,6.422,113.702,0,105.771,0H14.337
		C6.408,0,0,6.422,0,14.352v91.436c0,7.922,6.408,14.359,14.337,14.359H105.771z"/><path d="m14.337 2.435c-6.564 0-11.908 5.347-11.908 11.917v91.44c0 6.58 5.344 11.926 11.908 11.926h91.43c6.584 0 11.932-5.346 11.932-11.926v-91.44c0-6.57-5.348-11.917-11.932-11.917h-91.43"/><path d="m54.82 16.917c.023-7.05 10.66-7.05 10.66.202v29.621l41.453 24.925v10.947l-41.26-13.58v22.13l9.547 7.479v8.641l-14.723-4.57-14.719 4.57v-8.641l9.45-7.479v-22.13l-41.29 13.58v-10.947l40.885-24.925v-29.823" fill="#fff"/></svg>

<?xml version="1.0" encoding="iso-8859-1"?>
<!-- Generator: Adobe Illustrator 13.0.2, SVG Export Plug-In . SVG Version: 6.00 Build 14948)  -->
<!DOCTYPE svg PUBLIC "-//W3C//DTD SVG 1.1//EN" "http://www.w3.org/Graphics/SVG/1.1/DTD/svg11.dtd">
<svg version="1.1" id="Layer_1" xmlns="http://www.w3.org/2000/svg" xmlns:xlink="http://www.w3.org/1999/xlink" x="0px" y="0px"
	 width="120.135px" height="120.148px" viewBox="0 0 120.135 120.148" style="enable-background:new 0 0 120.135 120.148;"
	 xml:space="preserve">
<g>
	<path d="M105.771,120.147c7.933,0,14.363-6.438,14.363-14.359V14.352C120.134,6.422,113.702,0,105.771,0H14.337
		C6.408,0,0,6.422,0,14.352v91.436c0,7.922,6.408,14.359,14.337,14.359H105.771z"/>
	<path d="M14.337,2.435c-6.564,0-11.908,5.347-11.908,11.917v91.436c0,6.58,5.344,11.926,11.908,11.926h91.434
		c6.584,0,11.932-5.346,11.932-11.926V14.352c0-6.57-5.348-11.917-11.932-11.917H14.337z"/>
	<path style="fill:#FFFFFF;" d="M54.82,16.917c0.023-7.053,10.66-7.053,10.66,0.202V46.74l41.453,24.925v10.947l-41.264-13.58
		v22.129l9.547,7.479v8.641l-14.723-4.57l-14.719,4.57V98.64l9.45-7.479V69.032l-41.289,13.58V71.665L54.82,46.74V16.917z"/>
</g>
</svg>
